X:2476
L:1/8
Q:1/8=170
M:9/8
K:A
 B | cdB cAF cdB | cdB cAF cde | cdB cAF cde | edc BcA GF :| E | AGA cAc dcB | AGA cAc BGE | 
 AGA cAc Bc^d |1 e2 B BcA GF :|2 e2 B B2 G A3- | A6 z3 |]

